public/svgs/duotone/vault.svg

<svg xmlns="http://www.w3.org/2000/svg" viewBox="0 0 576 512"><!-- Font Awesome Pro 6.0.0-alpha2 by @fontawesome - https://fontawesome.com License - https://fontawesome.com/license (Commercial License) --><defs><style>.fa-secondary{opacity:.4}</style></defs><path d="M512 0H64C28.654 0 0 28.652 0 64V416C0 451.346 28.654 480 64 480H80L96 512H160L176 480H400L416 512H480L496 480H512C547.346 480 576 451.346 576 416V64C576 28.652 547.346 0 512 0ZM224 400C135.635 400 64 328.365 64 240S135.635 80 224 80S384 151.635 384 240S312.365 400 224 400ZM480 221.062V336C480 344.844 472.844 352 464 352S448 344.844 448 336V221.062C429.4 214.451 416 196.869 416 176C416 149.49 437.49 128 464 128S512 149.49 512 176C512 196.869 498.6 214.451 480 221.062Z" class="fa-secondary"/><path d="M224 80C135.633 80 64 151.633 64 240C64 328.363 135.633 400 224 400S384 328.363 384 240C384 151.633 312.367 80 224 80ZM224 304C188.654 304 160 275.346 160 240C160 204.652 188.654 176 224 176S288 204.652 288 240C288 275.346 259.346 304 224 304ZM464 128C437.49 128 416 149.49 416 176C416 196.869 429.4 214.451 448 221.062V336C448 344.844 455.156 352 464 352S480 344.844 480 336V221.062C498.6 214.451 512 196.869 512 176C512 149.49 490.51 128 464 128Z" class="fa-primary"/></svg>

<svg xmlns="http://www.w3.org/2000/svg" viewBox="0 0 576 512"><!--! Font Awesome Pro 6.5.1 by @fontawesome - https://fontawesome.com License - https://fontawesome.com/license (Commercial License) Copyright 2023 Fonticons, Inc. --><defs><style>.fa-secondary{opacity:.4}</style></defs><path class="fa-secondary" d="M64 0C28.7 0 0 28.7 0 64V416c0 35.3 28.7 64 64 64H80l16 32h64l16-32H400l16 32h64l16-32h16c35.3 0 64-28.7 64-64V64c0-35.3-28.7-64-64-64H64zm0 240a160 160 0 1 1 320 0A160 160 0 1 1 64 240zm416-18.7V336c0 8.8-7.2 16-16 16s-16-7.2-16-16V221.3c-18.6-6.6-32-24.4-32-45.3c0-26.5 21.5-48 48-48s48 21.5 48 48c0 20.9-13.4 38.7-32 45.3z"/><path class="fa-primary" d="M304 240a80 80 0 1 0 -160 0 80 80 0 1 0 160 0zM64 240a160 160 0 1 1 320 0A160 160 0 1 1 64 240zm448-64c0 20.9-13.4 38.7-32 45.3V336c0 8.8-7.2 16-16 16s-16-7.2-16-16V221.3c-18.6-6.6-32-24.4-32-45.3c0-26.5 21.5-48 48-48s48 21.5 48 48z"/></svg>
